resources/haticons/SVG/wheniwork.svg

<!-- Generated by IcoMoon.io -->
<svg version="1.1" xmlns="http://www.w3.org/2000/svg" width="24" height="24" viewBox="0 0 24 24">
<title>wheniwork</title>
<path d="M12 24c-6.658 0-12-5.418-12-12 0-6.658 5.342-12 12-12s12 5.342 12 12c0 6.582-5.342 12-12 12zM12 2.014c-5.497 0-9.987 4.489-9.987 9.986 0 5.498 4.49 9.988 9.987 9.988s9.987-4.49 9.987-9.988c0-5.497-4.489-9.986-9.987-9.986zM17.885 13.162h-8.672c-0.384 0-0.695-0.309-0.698-0.691v-1.012c0-0.387 0.311-0.697 0.698-0.697h8.748c0.001 0 0.001 0 0.002 0 0.384 0 0.695 0.311 0.695 0.695 0 0.001 0 0.001 0 0.002v-0 1.006c-0.077 0.387-0.387 0.697-0.773 0.697zM15.639 9.291h-8.748c-0.383 0.002-0.697-0.307-0.698-0.691v-1.010c0-0.311 0.31-0.621 0.697-0.621h8.748c0.31 0 0.62 0.311 0.62 0.619v1.006c0.001 0.386-0.31 0.697-0.619 0.697zM6.891 14.709h8.748c0.388 0 0.696 0.311 0.696 0.697v1.006c0.002 0.383-0.309 0.695-0.691 0.697h-8.753c-0.388-0.076-0.697-0.387-0.697-0.773v-1.006c-0.001-0.31 0.309-0.621 0.697-0.621z"></path>
</svg>

<svg xmlns="http://www.w3.org/2000/svg" width="24" height="24"><path d="M12 24C5.342 24 0 18.582 0 12 0 5.342 5.342 0 12 0s12 5.342 12 12c0 6.582-5.342 12-12 12zm0-21.986c-5.497 0-9.987 4.489-9.987 9.986 0 5.498 4.49 9.988 9.987 9.988s9.987-4.49 9.987-9.988c0-5.497-4.489-9.986-9.987-9.986zm5.885 11.148H9.213a.697.697 0 0 1-.698-.691v-1.012c0-.387.311-.697.698-.697h8.75c.384 0 .695.311.695.695v1.008c-.077.387-.387.697-.773.697zm-2.246-3.871H6.891a.694.694 0 0 1-.698-.691V7.59c0-.311.31-.621.697-.621h8.748c.31 0 .62.311.62.619v1.006c.001.386-.31.697-.619.697zm-8.748 5.418h8.748c.388 0 .696.311.696.697v1.006a.695.695 0 0 1-.691.697H6.891c-.388-.076-.697-.387-.697-.773V15.33c-.001-.31.309-.621.697-.621z"/></svg>
